Assets/Art/LUT_lessyellow-lessorange.cube
TITLE "Generated by Resolve"
LUT_3D_SIZE 33
0 0 0.000900282
0 0 0.000900282
0 0 0.000900282
0.00134279 0 0.00109865
0.00302129 0 0.00122072
0.00436408 0 0.0012665
0.00662242 0 0.00132753
0.0100099 0 0.00137331
0.0145876 0 0.00138857
0.021973 0 0.00138857
0.0341039 0.000183108 0.00129702
0.0506447 0.000335698 0.00115969
0.071519 0.000488289 0.000244144
0.100923 0.000503548 0.000122072
0.142412 0.00030518 0.000122072
0.190158 9.15541e-05 0.000106813
0.239063 0.000122072 0.000122072
0.284947 0.000106813 0.000335698
0.334417 0.000137331 0.00030518
0.380911 0.000137331 0.000259403
0.425772 0.000167849 0.000259403
0.474449 0.00015259 0.000183108
0.519005 0.000167849 0.000167849
0.557488 0.000183108 0.000183108
0.593744 0.000183108 0.000183108
0.621317 0.000167849 0.000167849
0.642771 0.000213626 0.000213626
0.662257 0.000213626 0.000213626
0.662257 0.000213626 0.000213626
0.662257 0.000213626 0.000213626
0.662257 0.000213626 0.000213626
0.662257 0.000213626 0.000213626
0.662257 0.000213626 0.000213626
0 0 0.000900282
0 0 0.000900282
0 0 0.000900282
0.00134279 0 0.00109865
0.00302129 0 0.00122072
0.00436408 0 0.0012665
0.00662242 0 0.00132753
0.0100099 0 0.00137331
0.0145876 0 0.00138857
0.021973 0 0.00138857
0.0341039 0.000183108 0.00129702
0.0506447 0.000335698 0.00115969
0.071519 0.000488289 0.000244144
0.100923 0.000503548 0.000122072
0.142412 0.00030518 0.000122072
0.190158 9.15541e-05 0.000106813
0.239063 0.000122072 0.000122072
0.284947 0.000106813 0.000335698
0.334417 0.000137331 0.00030518
0.380911 0.000137331 0.000259403
0.425772 0.000167849 0.000259403
0.474449 0.00015259 0.000183108
0.519005 0.000167849 0.000167849
0.557488 0.000183108 0.000183108
0.593744 0.000183108 0.000183108
0.621317 0.000167849 0.000167849
0.642771 0.000213626 0.000213626
0.662257 0.000213626 0.000213626
0.662257 0.000213626 0.000213626
0.662257 0.000213626 0.000213626
0.662257 0.000213626 0.000213626
0.662257 0.000213626 0.000213626
0.662257 0.000213626 0.000213626
0 0 0.000900282
0 0 0.000900282
0 0 0.000900282
0.00134279 0 0.00109865
0.00302129 0 0.00122072
0.00436408 0 0.0012665
0.00662242 0 0.00132753
0.0100099 0 0.00137331
0.0145876 0 0.00138857
0.021973 0 0.00138857
0.0341039 0.000183108 0.00129702
0.0506447 0.000335698 0.00115969
0.071519 0.000488289 0.000244144
0.100923 0.000503548 0.000122072
0.142412 0.00030518 0.000122072
0.190158 9.15541e-05 0.000106813
0.239063 0.000122072 0.000122072
0.284947 0.000106813 0.000335698
0.334417 0.000137331 0.00030518
0.380911 0.000137331 0.000259403
0.425772 0.000167849 0.000259403
0.474449 0.00015259 0.000183108
0.519005 0.000167849 0.000167849
0.557488 0.000183108 0.000183108
0.593744 0.000183108 0.000183108
0.621317 0.000167849 0.000167849
0.642771 0.000213626 0.000213626
0.662257 0.000213626 0.000213626
0.662257 0.000213626 0.000213626
0.662257 0.000213626 0.000213626
0.662257 0.000213626 0.000213626
0.662257 0.000213626 0.000213626
0.662257 0.000213626 0.000213626
0 0 0.00106813
0 0 0.00106813
0 0 0.00106813
0.000823987 0 0.00120546
0.00242618 0 0.00131228
0.00383001 0 0.00137331
0.00602731 0.000137331 0.00138857
0.00947585 0.000335698 0.00140383
0.0141909 0.000579843 0.00138857
0.0214847 0.000793469 0.00135805
0.0340581 0.0009308 0.00125124
0.0514076 0.00105287 0.00103761
0.0733654 0.0011902 0.000198367
0.105501 0.00114443 0.000183108
0.150179 0.000885023 0.000183108
0.203616 0.000381476 0.00015259
0.256901 0.000106813 0.000106813
0.30573 0.000106813 0.000259403
0.353933 0.000137331 0.000274662
0.402365 0.000137331 0.000228885
0.457847 0.000167849 0.000213626
0.510491 0.00015259 0.00015259
0.556512 0.000183108 0.000183108
0.599496 0.000213626 0.000213626
0.634318 0.000213626 0.000213626
0.665507 0.000183108 0.000183108
0.686564 0.000213626 0.000213626
0.709743 0.000183108 0.000183108
0.709743 0.000183108 0.000183108
0.709743 0.000183108 0.000183108
0.709743 0.000183108 0.000183108
0.709743 0.000183108 0.000183108
0.709743 0.000183108 0.000183108
0 0.00134279 0.00125124
0 0.00134279 0.00125124
0 0.00134279 0.00125124
0.000381476 0.00140383 0.00137331
0.00184634 0.0015259 0.00134279
0.00349432 0.00157168 0.00122072
0.00543221 0.00175479 0.0012665
0.00868238 0.00195315 0.00137331
0.013077 0.00218204 0.00143435
0.0199893 0.00242618 0.00144961
0.0322881 0.00259403 0.00137331
0.0493324 0.00277714 0.00112917
0.0712749 0.0030518 0.000518807
0.104677 0.0030518 0.000488289
0.15172 0.00277714 0.000427253
0.208499 0.00222782 0.000335698
0.26804 0.00149538 0.000274662
0.32845 0.000289921 0.000183108
0.378119 0.00015259 0.000137331
0.423468 0.000137331 0.000350958
0.481819 0.00015259 0.000183108
0.535607 0.000183108 0.000183108
0.588388 0.000167849 0.000167849
0.630426 0.000213626 0.000213626
0.670054 0.000183108 0.000183108
0.699748 0.000183108 0.000183108
0.722484 0.000228885 0.000228885
0.74313 0.000213626 0.000228885
0.74313 0.000213626 0.000228885
0.74313 0.000213626 0.000228885
0.74313 0.000213626 0.000228885
0.74313 0.000213626 0.000228885
0.74313 0.000213626 0.000228885
0 0.00242618 0.00144961
0 0.00242618 0.00144961
0 0.00242618 0.00144961
0.000183108 0.00248722 0.00154116
0.00177005 0.00259403 0.00158694
0.00303655 0.0027924 0.00135805
0.00537118 0.00283818 0.00144961
0.00827039 0.00315862 0.00146487
0.012314 0.0034638 0.00167849
0.0188449 0.00378424 0.00175479
0.0305486 0.00401312 0.00164797
0.0477913 0.00424201 0.00141909
0.0703288 0.00445563 0.000854505
0.104906 0.00447089 0.000808728
0.153643 0.00421149 0.000686656
0.212955 0.00373846 0.000564584
0.273854 0.00302129 0.000457771
0.335576 0.00201419 0.000335698
0.397589 0.000457771 0.000183108
0.44892 0.000167849 0.000167849
0.506432 0.000183108 0.000183108
0.562966 0.000167849 0.000183108
0.610819 0.000213626 0.000213626
0.655543 0.000213626 0.000213626
0.693614 0.000198367 0.000213626
0.728161 0.000183108 0.000183108
0.751476 0.000213626 0.000213626
0.77792 0.000198367 0.000183108
0.77792 0.000198367 0.000183108
0.77792 0.000198367 0.000183108
0.77792 0.000198367 0.000183108
0.77792 0.000198367 0.000183108
0.77792 0.000198367 0.000183108
0 0.00402838 0.00158694
0 0.00402838 0.00158694
0 0.00402838 0.00158694
0 0.00408942 0.00166323
0.00138857 0.00419623 0.00172427
0.00265507 0.00430304 0.00180056
0.00468452 0.00453193 0.00123598
0.0091249 0.00451667 0.00120546
0.0129549 0.00497444 0.00132753
0.0190738 0.00546273 0.00177005
0.0298466 0.0059968 0.00190738
0.0461585 0.00637827 0.00164797
0.0699016 0.00669871 0.00135805
0.105135 0.00686656 0.00129702
0.15465 0.0065919 0.00112917
0.214282 0.00602731 0.000976577
0.27512 0.00529488 0.000823987
0.336736 0.00448615 0.000671397
0.396597 0.00334173 0.000503548
0.466407 0.00169375 0.00030518
0.537179 0.000198367 0.000198367
0.595789 0.000183108 0.000183108
0.644282 0.000183108 0.000183108
0.690196 0.000183108 0.000183108
0.731121 0.000198367 0.000198367
0.762676 0.000183108 0.000183108
0.790539 0.000183108 0.000198367
0.810056 0.000213626 0.000213626
0.810056 0.000213626 0.000213626
0.810056 0.000213626 0.000213626
0.810056 0.000213626 0.000213626
0.810056 0.000213626 0.000213626
0.810056 0.000213626 0.000213626
0 0.00653086 0.0018616
0 0.00653086 0.0018616
0 0.00653086 0.0018616
0 0.00665293 0.00190738
0 0.00682078 0.00192264
0.00178531 0.00691234 0.00195315
0.00421149 0.00714122 0.00199893
0.00762951 0.00762951 0.0010071
0.0146181 0.00770581 0.00015259
0.0221714 0.00808728 0.00103761
0.0324407 0.00880446 0.00161746
0.0484627 0.00949111 0.00184634
0.0731975 0.010132 0.0019379
0.108431 0.0105898 0.0019379
0.155749 0.0106203 0.00183108
0.212192 0.0103761 0.00169375
0.270314 0.00982681 0.0015259
0.328603 0.00894179 0.00135805
0.384466 0.00781262 0.00112917
0.453651 0.00646983 0.000915541
0.522515 0.00502022 0.000732433
0.588174 0.00376898 0.000564584
0.652949 0.00222782 0.000411994
0.71725 0.00062562 0.000259403
0.757671 0.000427253 0.000244144
0.787442 0.00062562 0.000274662
0.807324 0.0010071 0.00030518
0.820279 0.0015259 0.000350958
0.820279 0.0015259 0.000350958
0.820279 0.0015259 0.000350958
0.820279 0.0015259 0.000350958
0.820279 0.0015259 0.000350958
0.820279 0.0015259 0.000350958
0 0.0101167 0.002121
0 0.0101167 0.002121
0 0.0101167 0.002121
0 0.0102998 0.00216678
0 0.0105592 0.00216678
0.000259403 0.0107271 0.00215152
0.00318914 0.0108949 0.00215152
0.00697337 0.0114137 0.00209049
0.01178 0.0122988 0.000701915
0.0238193 0.0123293 1.5259e-05
0.0383612 0.0126345 0.00125124
0.0544442 0.0137789 0.00209049
0.0798505 0.0145571 0.00239567
0.114733 0.0155337 0.00254826
0.159319 0.0161135 0.00256352
0.211215 0.0164492 0.002533
0.264744 0.0162966 0.00239567
0.317845 0.0156558 0.00224308
0.370825 0.0144503 0.00204471
0.438254 0.0131533 0.00180056
0.505135 0.0117189 0.00157168
0.567849 0.0100099 0.00135805
0.628916 0.00825513 0.00112917
0.689525 0.00639353 0.000885023
0.746944 0.00459297 0.000671397
0.781735 0.00424201 0.000640879
0.801328 0.00450141 0.000656138
0.816037 0.00486763 0.000701915
0.816037 0.00486763 0.000701915
0.816037 0.00486763 0.000701915
0.816037 0.00486763 0.000701915
0.816037 0.00486763 0.000701915
0.816037 0.00486763 0.000701915
0 0.0159457 0.00234989
0 0.0159457 0.00234989
0 0.0159457 0.00234989
0 0.0161593 0.00236515
0 0.0166323 0.00234989
0 0.0169985 0.00234989
0.00177005 0.0171359 0.00224308
0.0055848 0.0177615 0.00216678
0.0105135 0.0186313 0.00189212
0.0188449 0.0200809 1.5259e-05
0.042298 0.0195773 1.5259e-05
0.0662089 0.0196536 0.00181582
0.0910201 0.021973 0.00273136
0.126314 0.0234989 0.00320439
0.168872 0.0247501 0.00341802
0.216388 0.0257572 0.00350958
0.265629 0.026276 0.00352483
0.312612 0.026215 0.0034638
0.364324 0.0255283 0.00334173
0.426596 0.0243381 0.0031281
0.488106 0.0229191 0.00288396
0.546746 0.0210269 0.00262455
0.604852 0.018967 0.00231937
0.661173 0.0164492 0.00201419
0.715434 0.0133669 0.00166323
0.768872 0.0099794 0.00128176
0.800839 0.00886549 0.00115969
0.813794 0.00949111 0.00122072
0.813794 0.00949111 0.00122072
0.813794 0.00949111 0.00122072
0.813794 0.00949111 0.00122072
0.813794 0.00949111 0.00122072
0.813794 0.00949111 0.00122072
0 0.0256199 0.00236515
0 0.0256199 0.00236515
0 0.0256199 0.00236515
0 0.0261692 0.00238041
0 0.0269169 0.00234989
0 0.0275731 0.00228885
1.5259e-05 0.0280766 0.00215152
0.0030518 0.0285344 0.00183108
0.00805676 0.0296483 0.00149538
0.0160525 0.0312352 0.000717174
0.0323949 0.033753 0
0.0700847 0.0329747 1.5259e-05
0.111818 0.032517 0.00201419
0.14432 0.0361486 0.00323491
0.185748 0.0385901 0.00402838
0.232364 0.0403906 0.00437934
0.278691 0.0419776 0.00456245
0.320165 0.0426947 0.00466926
0.373465 0.0427863 0.00469978
0.429572 0.0424353 0.00466926
0.484779 0.0415656 0.00456245
0.537758 0.0402075 0.00444038
0.584878 0.0382086 0.00424201
0.627832 0.0355688 0.00396735
0.668742 0.0318608 0.00358587
0.712016 0.0267948 0.0030518
0.766247 0.0201267 0.00233463
0.797925 0.0178683 0.00207523
0.797925 0.0178683 0.00207523
0.797925 0.0178683 0.00207523
0.797925 0.0178683 0.00207523
0.797925 0.0178683 0.00207523
0.797925 0.0178683 0.00207523
0 0.0396582 0.00202945
0 0.0396582 0.00202945
0 0.0396582 0.00202945
0 0.0406195 0.00202945
0 0.0417945 0.00195315
0 0.0429236 0.00184634
0 0.0438392 0.00164797
0 0.0447395 0.00125124
0.00450141 0.0457008 0.000701915
0.0127413 0.0471504 1.5259e-05
0.0277867 0.0492866 0
0.0554818 0.0527047 1.5259e-05
0.109636 0.0521859 0
0.172869 0.0506905 0.00183108
0.213504 0.0545968 0.00355535
0.256016 0.0590524 0.00444038
0.30071 0.0613107 0.00508125
0.346044 0.0627756 0.00552377
0.400397 0.0638743 0.00585946
0.457328 0.0645304 0.00605783
0.514199 0.0646525 0.00616464
0.563149 0.0640269 0.00614939
0.601968 0.0627756 0.00607309
0.634318 0.0607767 0.0059205
0.661173 0.0577401 0.00564584
0.685206 0.0530709 0.0052491
0.71339 0.0456092 0.00466926
0.759091 0.0349584 0.00376898
0.759091 0.0349584 0.00376898
0.759091 0.0349584 0.00376898
0.759091 0.0349584 0.00376898
0.759091 0.0349584 0.00376898
0.759091 0.0349584 0.00376898
0 0.057435 0.00155642
0 0.057435 0.00155642
0 0.057435 0.00155642
0 0.0586862 0.00154116
0 0.0601053 0.00141909
0 0.0614176 0.0012665
0 0.0627298 0.000961318
0 0.0647135 0.000503548
3.0518e-05 0.066453 0
0.00820935 0.0673991 0
0.0238804 0.0699016 0
0.0487831 0.0745708 0
0.0895399 0.0792859 1.5259e-05
0.163882 0.0780346 0
0.246647 0.075288 0.00135805
0.29662 0.0786908 0.00334173
0.335576 0.0849622 0.0041352
0.386801 0.0887312 0.00540169
0.4477 0.0908827 0.0065156
0.517342 0.0926375 0.00720226
0.579736 0.093431 0.00755322
0.628046 0.0932326 0.00766003
0.665934 0.0922866 0.00772107
0.695201 0.090547 0.00767529
0.716121 0.0881208 0.00759899
0.730663 0.0839551 0.00740063
0.740032 0.0777295 0.00703441
0.749325 0.0682994 0.00640879
0.749325 0.0682994 0.00640879
0.749325 0.0682994 0.00640879
0.749325 0.0682994 0.00640879
0.749325 0.0682994 0.00640879
0.749325 0.0682994 0.00640879
0 0.0795758 0.00102235
0 0.0795758 0.00102235
0 0.0795758 0.00102235
0 0.0814679 0.000976577
1.5259e-05 0.0837568 0.000808728
0 0.0855726 0.000579843
0 0.0876478 0.000183108
0 0.0904097 0
0 0.0935073 0
0.00282292 0.0954604 0
0.0177615 0.0980087 0
0.043473 0.102724 1.5259e-05
0.0787518 0.109865 0
0.13521 0.115648 0
0.227314 0.113771 0
0.330053 0.109865 0.000656138
0.401709 0.111818 0.00259403
0.465019 0.117922 0.00444038
0.530144 0.124743 0.0059968
0.604654 0.128817 0.00750744
0.671992 0.130724 0.00839246
0.726116 0.130968 0.00885023
0.768154 0.130388 0.00906386
0.783871 0.128893 0.0091249
0.782681 0.126406 0.00906386
0.780774 0.123079 0.0089723
0.778393 0.117433 0.00881972
0.775051 0.10956 0.00854505
0.775051 0.10956 0.00854505
0.775051 0.10956 0.00854505
0.775051 0.10956 0.00854505
0.775051 0.10956 0.00854505
0.775051 0.10956 0.00854505
0 0.107378 0.000457771
0 0.107378 0.000457771
0 0.107378 0.000457771
0 0.109941 0.000350958
0 0.112718 4.57771e-05
0 0.115343 0
0 0.11809 0
0 0.122087 0
0 0.127062 0
0 0.131563 0
0.00955215 0.133974 0
0.0359197 0.138201 0
0.0718853 0.146151 0
0.12166 0.156481 1.5259e-05
0.195041 0.163684 0
0.300435 0.161975 0
0.431266 0.156664 0.000244144
0.56022 0.157855 0.00247196
0.667231 0.162783 0.00582895
0.751232 0.16817 0.00791943
0.81181 0.172961 0.0087892
0.82327 0.175463 0.00889601
0.823774 0.17586 0.00888075
0.823026 0.175265 0.00889601
0.82153 0.17406 0.00891127
0.819043 0.171969 0.00898756
0.814801 0.167773 0.00909438
0.807568 0.160586 0.00924697
0.807568 0.160586 0.00924697
0.807568 0.160586 0.00924697
0.807568 0.160586 0.00924697
0.807568 0.160586 0.00924697
0.807568 0.160586 0.00924697
0 0.138201 0
0 0.138201 0
0 0.138201 0
0 0.141588 0
0 0.145327 0
0 0.148989 0
0 0.153002 0
0 0.158221 0
0 0.164981 0
0 0.171862 0
0.00581369 0.175265 0
0.0255589 0.180957 0
0.062623 0.189181 1.5259e-05
0.111894 0.20177 0
0.17966 0.215457 0
0.267659 0.224735 0
0.379507 0.22356 0
0.568048 0.21651 9.15541e-05
0.750515 0.215564 0.00222782
0.852949 0.220157 0.00474556
0.891035 0.22356 0.00564584
0.893904 0.225666 0.00549325
0.89572 0.226734 0.00538643
0.897551 0.227909 0.00529488
0.899107 0.229084 0.00517281
0.899107 0.229084 0.00517281
0.897017 0.227665 0.00534066
0.891554 0.22414 0.00560006
0.891554 0.22414 0.00560006
0.891554 0.22414 0.00560006
0.891554 0.22414 0.00560006
0.891554 0.22414 0.00560006
0.891554 0.22414 0.00560006
0 0.169574 0
0 0.169574 0
0 0.169574 0
0 0.173663 0
0 0.178561 0
0 0.183047 0
0 0.187991 0
0 0.194827 0
0 0.203082 0
0 0.211551 0
0.00535592 0.216983 0
0.0216831 0.225666 0
0.0472419 0.237415 0
0.0982986 0.25069 0
0.166674 0.267399 0
0.251209 0.284123 0
0.345312 0.292149 0
0.479591 0.290654 0
0.674815 0.285618 0
0.816037 0.28603 0.000366217
0.891814 0.289967 0.00521859
0.932555 0.294728 0.0120851
0.935546 0.297032 0.0171817
0.929595 0.29839 0.0206455
0.926467 0.300023 0.0233921
0.923598 0.300969 0.0254368
0.921004 0.30016 0.026627
0.917342 0.297581 0.0270848
0.917342 0.297581 0.0270848
0.917342 0.297581 0.0270848
0.917342 0.297581 0.0270848
0.917342 0.297581 0.0270848
0.917342 0.297581 0.0270848
0 0.199603 0
0 0.199603 0
0 0.199603 0
0 0.205035 0
0 0.211109 0
0 0.216739 0
0 0.223087 0
0 0.230961 0
0 0.240467 0
0 0.251331 0
0.00459297 0.259937 0
0.0205234 0.271458 0
0.0407111 0.286702 0
0.0739757 0.301793 0
0.146609 0.318425 0
0.233539 0.337316 0
0.324666 0.349447 1.5259e-05
0.420508 0.354238 0
0.555535 0.355169 0
0.709529 0.357198 0.00517281
0.835248 0.359976 0.0102083
0.919173 0.36231 0.0153506
0.973892 0.364172 0.0205997
0.97525 0.366033 0.0241398
0.973892 0.367422 0.0263981
0.972808 0.367575 0.0274662
0.971176 0.366186 0.0282139
0.969543 0.364172 0.0286259
0.969543 0.364172 0.0286259
0.969543 0.364172 0.0286259
0.969543 0.364172 0.0286259
0.969543 0.364172 0.0286259
0.969543 0.364172 0.0286259
0 0.229191 0
0 0.229191 0
0 0.229191 0
0 0.23624 0
0 0.24329 0
0 0.250065 0
0 0.25803 0
0 0.267399 0
0 0.278828 0
0 0.292271 0
0.00282292 0.304234 0
0.0176547 0.317693 0
0.0409705 0.335866 0
0.0621958 0.353475 0
0.110536 0.367575 0.000885023
0.211765 0.380758 0.00315862
0.305455 0.395117 0.00392157
0.393637 0.406989 0.00463874
0.505318 0.416388 0.00740063
0.646235 0.424796 0.0113375
0.768383 0.43006 0.0156863
0.866789 0.433188 0.0198367
0.942885 0.434592 0.023621
0.990204 0.434943 0.0265354
0.995377 0.434058 0.0276951
0.994827 0.433021 0.0282444
0.994568 0.431617 0.0286717
0.994018 0.430228 0.0289616
0.994018 0.430228 0.0289616
0.994018 0.430228 0.0289616
0.994018 0.430228 0.0289616
0.994018 0.430228 0.0289616
0.994018 0.430228 0.0289616
0 0.256519 0
0 0.256519 0
0 0.256519 0
0 0.264744 0
0 0.27335 0
0 0.28127 0
0 0.28983 0
0 0.30071 0
0 0.314214 0
0 0.329763 0
0.00242618 0.344152 0
0.016556 0.35967 0
0.0409705 0.379675 0
0.0651255 0.398413 0.000701915
0.0966049 0.411597 0.00288396
0.170077 0.418357 0.00991836
0.286702 0.43267 0.0194705
0.376883 0.452949 0.0162966
0.488853 0.469032 0.0162356
0.619257 0.483299 0.0197299
0.733166 0.493095 0.0234684
0.827268 0.498833 0.0264744
0.895201 0.50106 0.0284733
0.929335 0.498833 0.0293126
0.949416 0.497169 0.0298466
0.962737 0.496071 0.0301518
0.973083 0.495323 0.0305028
0.980697 0.494392 0.0307012
0.980697 0.494392 0.0307012
0.980697 0.494392 0.0307012
0.980697 0.494392 0.0307012
0.980697 0.494392 0.0307012
0.980697 0.494392 0.0307012
0 0.278691 0
0 0.278691 0
0 0.278691 0
0 0.288884 0
0 0.298802 0
0 0.307362 0
0 0.316686 0
0 0.328893 0
6.10361e-05 0.343572 0
0.000137331 0.360143 1.5259e-05
0.00238041 0.376562 0
0.0159457 0.394125 0
0.0422522 0.413916 0.000274662
0.0708019 0.42974 0.00260929
0.108278 0.440009 0.00729381
0.153185 0.448402 0.0162356
0.236942 0.460639 0.0304265
0.355795 0.487556 0.030808
0.468864 0.510124 0.0263676
0.60444 0.528572 0.0281529
0.721111 0.543038 0.0306554
0.81181 0.551629 0.0325933
0.861418 0.552209 0.0332494
0.888426 0.550454 0.0335241
0.906661 0.549477 0.0337987
0.919432 0.548699 0.0340276
0.928557 0.548302 0.0341802
0.935546 0.548119 0.0343328
0.935546 0.548119 0.0343328
0.935546 0.548119 0.0343328
0.935546 0.548119 0.0343328
0.935546 0.548119 0.0343328
0.935546 0.548119 0.0343328
0 0.296757 0
0 0.296757 0
0 0.296757 0
0 0.308171 0
0 0.318853 0
0 0.328161 0
3.0518e-05 0.338186 0
9.15541e-05 0.350835 0
0.000137331 0.366644 0
0.000183108 0.384466 0
0.00234989 0.402533 0
0.0157168 0.420996 0
0.04448 0.437919 0.00140383
0.0772564 0.450858 0.005066
0.119509 0.4589 0.0132601
0.166278 0.469215 0.0252079
0.206119 0.483848 0.0353857
0.292409 0.505684 0.0442512
0.426108 0.536782 0.0376593
0.575006 0.561013 0.0353399
0.707027 0.579324 0.0364691
0.797452 0.590234 0.0374762
0.842969 0.59086 0.0376287
0.867582 0.589624 0.0376287
0.885039 0.58941 0.0377356
0.897292 0.589212 0.0378576
0.905623 0.589212 0.0379797
0.911879 0.588998 0.038056
0.911879 0.588998 0.038056
0.911879 0.588998 0.038056
0.911879 0.588998 0.038056
0.911879 0.588998 0.038056
0.911879 0.588998 0.038056
0 0.311025 0
0 0.311025 0
0 0.311025 0
0 0.323949 0
1.5259e-05 0.335714 0
6.10361e-05 0.345174 0
0.000106813 0.355642 0
0.00015259 0.369131 0
0.000183108 0.385718 0
0.000244144 0.405173 0
0.00238041 0.423804 1.5259e-05
0.0163729 0.441581 0
0.047837 0.455741 0.00270085
0.0850233 0.46537 0.00859083
0.129976 0.473762 0.0195773
0.176562 0.488106 0.0323186
0.215457 0.505135 0.0418402
0.246265 0.521035 0.0479286
0.34342 0.545769 0.0534981
0.516594 0.581384 0.0427863
0.681788 0.606699 0.0415198
0.781018 0.618433 0.0417945
0.828763 0.620295 0.0417945
0.855695 0.620081 0.0417487
0.873304 0.619669 0.0417487
0.884779 0.619669 0.0417945
0.893629 0.619883 0.041886
0.899626 0.619883 0.0419318
0.899626 0.619883 0.0419318
0.899626 0.619883 0.0419318
0.899626 0.619883 0.0419318
0.899626 0.619883 0.0419318
0.899626 0.619883 0.0419318
0 0.323217 0
0 0.323217 0
0 0.323217 0
3.0518e-05 0.337896 0
9.15541e-05 0.349752 0
0.000137331 0.359976 1.5259e-05
0.000167849 0.370993 0
0.000183108 0.384787 0
0.000244144 0.402197 0
0.000289921 0.42182 0
0.0024567 0.441062 0
0.017731 0.457145 0.000366217
0.052079 0.468162 0.00424201
0.0925002 0.475532 0.0125124
0.138201 0.486442 0.0251164
0.184146 0.502907 0.0375067
0.222858 0.522148 0.0463874
0.253986 0.53933 0.0526589
0.280735 0.553384 0.0578012
0.390494 0.580774 0.0596323
0.620081 0.621942 0.0466011
0.756237 0.639094 0.0457008
0.814298 0.642557 0.0454719
0.84622 0.643198 0.0453346
0.866011 0.643641 0.0453803
0.879042 0.644068 0.0454719
0.886336 0.644282 0.0454719
0.892592 0.644495 0.0455634
0.892592 0.644495 0.0455634
0.892592 0.644495 0.0455634
0.892592 0.644495 0.0455634
0.892592 0.644495 0.0455634
0.892592 0.644495 0.0455634
3.0518e-05 0.333104 0
3.0518e-05 0.333104 0
3.0518e-05 0.333104 0
9.15541e-05 0.348974 0
0.000137331 0.36199 1.5259e-05
0.000167849 0.372381 0
0.000183108 0.383703 0
0.000213626 0.398245 0
0.000274662 0.415885 0
0.000335698 0.435645 1.5259e-05
0.00268559 0.455055 0
0.01944 0.468513 0.0010071
0.0570077 0.476631 0.00595102
0.0992752 0.484031 0.0161288
0.145052 0.496437 0.0291142
0.189715 0.515114 0.0410163
0.228016 0.534829 0.0495155
0.259297 0.552605 0.0563211
0.286442 0.566873 0.0614633
0.308858 0.578912 0.0650187
0.438956 0.611231 0.0614176
0.696788 0.649485 0.0491035
0.79173 0.657267 0.048249
0.835737 0.659876 0.048249
0.859174 0.660731 0.0482032
0.873838 0.661173 0.048249
0.883741 0.661601 0.0483406
0.888426 0.661814 0.0483406
0.888426 0.661814 0.0483406
0.888426 0.661814 0.0483406
0.888426 0.661814 0.0483406
0.888426 0.661814 0.0483406
0.888426 0.661814 0.0483406
6.10361e-05 0.340948 0
6.10361e-05 0.340948 0
6.10361e-05 0.340948 0
0.000137331 0.359213 1.5259e-05
0.000167849 0.372854 0
0.000183108 0.383078 0
0.000213626 0.394949 0
0.000244144 0.409781 0
0.00030518 0.427268 0
0.000350958 0.447532 0
0.00303655 0.465721 0
0.0221714 0.476448 0.00169375
0.0626688 0.482368 0.00796521
0.105959 0.4907 0.0194247
0.150912 0.504387 0.032639
0.194614 0.523888 0.0436103
0.232364 0.544396 0.052079
0.2636 0.561791 0.0590524
0.290913 0.576852 0.0640269
0.313191 0.589822 0.0679332
0.331792 0.600732 0.0706798
0.487175 0.633249 0.0606851
0.74313 0.664851 0.0506905
0.819043 0.670481 0.0502785
0.851698 0.673075 0.05037
0.869398 0.673732 0.0504616
0.880354 0.673945 0.0504616
0.886854 0.674372 0.0505074
0.886854 0.674372 0.0505074
0.886854 0.674372 0.0505074
0.886854 0.674372 0.0505074
0.886854 0.674372 0.0505074
0.886854 0.674372 0.0505074
9.15541e-05 0.348669 0
9.15541e-05 0.348669 0
9.15541e-05 0.348669 0
0.00015259 0.369436 0
0.000183108 0.383703 0
0.000213626 0.394629 0
0.000228885 0.406485 0
0.000289921 0.421332 0
0.00030518 0.438437 0
0.000396735 0.458366 0
0.0037232 0.4748 0
0.0262455 0.482933 0.002533
0.0693065 0.487175 0.0102083
0.112642 0.496254 0.0225834
0.156207 0.511238 0.0352331
0.19852 0.531319 0.045655
0.235889 0.552026 0.0541848
0.267155 0.569406 0.0610971
0.293904 0.584466 0.0662089
0.316381 0.597436 0.0700847
0.334997 0.608347 0.0726482
0.34197 0.612268 0.0734264
0.520302 0.645579 0.0597848
0.779828 0.676112 0.0521401
0.839231 0.680659 0.0521859
0.863935 0.682246 0.0522927
0.877485 0.682933 0.0523995
0.885557 0.683833 0.0524453
0.885557 0.683833 0.0524453
0.885557 0.683833 0.0524453
0.885557 0.683833 0.0524453
0.885557 0.683833 0.0524453
0.885557 0.683833 0.0524453
0.000106813 0.357504 0
0.000106813 0.357504 0
0.000106813 0.357504 0
0.000183108 0.380438 0
