Assets/Art/LUT_lessyellow-lessorange.cube
TITLE "Generated by Resolve"
LUT_3D_SIZE 5
0 0 0.000900282
0.0145876 0 0.00138857
0.239063 0.000122072 0.000122072
0.593744 0.000183108 0.000183108
0.662257 0.000213626 0.000213626
0 0.0101167 0.002121
0.01178 0.0122988 0.000701915
0.264744 0.0162966 0.00239567
0.746944 0.00459297 0.000671397
0.816037 0.00486763 0.000701915
0 0.169574 0
0 0.203082 0
0.345312 0.292149 0
0.926467 0.300023 0.0233921
0.917342 0.297581 0.0270848
3.0518e-05 0.333104 0
0.000274662 0.415885 0
0.228016 0.534829 0.0495155
0.859174 0.660731 0.0482032
0.888426 0.661814 0.0483406
0.000106813 0.357504 0
0.000366217 0.450507 0
0.239063 0.55729 0.0558633
0.808072 0.684062 0.0532845
0.883207 0.689525 0.0536049
0 0 0.00839246
0.0133364 3.0518e-05 0.00854505
0.251209 0 0.00886549
0.63714 3.0518e-05 0.00352483
0.713848 4.57771e-05 0.00363165
0 0.0119783 0.0103609
0.0105592 0.012604 0.00991836
0.293645 0.0125124 0.00474556
0.817044 0.000213626 0.000213626
0.880079 0.000808728 0.000289921
0 0.184146 0.00840772
0 0.216739 0.007187
0.34284 0.30396 1.5259e-05
0.933913 0.310628 0.0248264
0.924651 0.306142 0.0279545
0 0.355337 0.0132448
0 0.430396 0.00936904
0.220966 0.535607 0.0489662
0.859174 0.664424 0.0489204
0.888945 0.664637 0.0488746
0 0.386328 0.0211643
9.15541e-05 0.467994 0.0195773
0.220508 0.546166 0.0615244
0.807324 0.674372 0.0524453
0.884001 0.678279 0.0522316
0 0.00112917 0.185657
0.00328069 0 0.150179
0.246387 0 0.205905
0.619669 0 0.236713
0.703151 0 0.200366
0 0.00384527 0.233066
0 0.0229496 0.203403
0.293645 0.00598154 0.254246
0.729747 0 0.271321
0.819791 0.000244144 0.226612
0 0.255634 0.293767
0 0.299351 0.314351
0.285344 0.320607 0.284535
0.657923 0.353628 0.309804
0.680659 0.349126 0.280995
0 0.4477 0.205783
0 0.511604 0.226017
0.216861 0.591272 0.307225
0.824765 0.722026 0.306279
0.869139 0.722484 0.247532
0 0.451545 0.117098
0.00459297 0.514199 0.14049
0.222141 0.607935 0.237888
0.777203 0.740032 0.273991
0.865232 0.750042 0.26981
0 0.00331121 0.445426
0 0.00344854 0.450858
0.20177 0 0.499214
0.589624 0 0.557687
0.642985 0 0.56022
0 0.00376898 0.457664
0 0.0144808 0.462913
0.227314 0.00486763 0.540688
0.664851 0 0.563943
0.708843 0.00105287 0.553979
1.5259e-05 0.226261 0.168765
0 0.263355 0.159762
0.104463 0.190921 0.474281
0.730434 0.15758 0.463615
0.796262 0.141039 0.46746
0 0.544594 0.477012
0 0.59086 0.463264
0.144503 0.663981 0.488472
0.780774 0.751705 0.585702
0.837736 0.761242 0.593332
0 0.56257 0.473228
0 0.603006 0.459251
0.152728 0.684977 0.494774
0.740993 0.771725 0.588586
0.84123 0.789349 0.601358
0 0.00357061 0.453117
0 0.00370794 0.456092
0.0711681 0 0.474449
0.607736 0 0.566674
0.661814 0 0.567254
0 0.00399786 0.462913
0 0.0277256 0.468864
0.0879835 0.0111543 0.541665
0.641245 0.00474556 0.540108
0.68748 0.00741588 0.529366
0 0.185351 0.270314
0 0.227909 0.22884
0.00741588 0.181048 0.492363
0.733623 0.138018 0.473411
0.789593 0.143603 0.471138
0 0.551232 0.477195
0 0.595376 0.465888
0.136294 0.665507 0.491249
0.750286 0.752895 0.585504
0.82826 0.758862 0.594965
0 0.569207 0.474113
0 0.608148 0.462043
0.144778 0.68838 0.4981
0.683833 0.770062 0.586328
0.836988 0.789349 0.605051
