Assets/Art/LUT_lessyellow-lessorange.cube
TITLE "Generated by Resolve"
LUT_3D_SIZE 9
0 0 0.000900282
0.00302129 0 0.00122072
0.0145876 0 0.00138857
0.071519 0.000488289 0.000244144
0.239063 0.000122072 0.000122072
0.425772 0.000167849 0.000259403
0.593744 0.000183108 0.000183108
0.662257 0.000213626 0.000213626
0.662257 0.000213626 0.000213626
0 0.00134279 0.00125124
0.00184634 0.0015259 0.00134279
0.013077 0.00218204 0.00143435
0.0712749 0.0030518 0.000518807
0.26804 0.00149538 0.000274662
0.481819 0.00015259 0.000183108
0.670054 0.000183108 0.000183108
0.74313 0.000213626 0.000228885
0.74313 0.000213626 0.000228885
0 0.0101167 0.002121
0 0.0105592 0.00216678
0.01178 0.0122988 0.000701915
0.0798505 0.0145571 0.00239567
0.264744 0.0162966 0.00239567
0.505135 0.0117189 0.00157168
0.746944 0.00459297 0.000671397
0.816037 0.00486763 0.000701915
0.816037 0.00486763 0.000701915
0 0.057435 0.00155642
0 0.0601053 0.00141909
3.0518e-05 0.066453 0
0.0895399 0.0792859 1.5259e-05
0.335576 0.0849622 0.0041352
0.579736 0.093431 0.00755322
0.716121 0.0881208 0.00759899
0.749325 0.0682994 0.00640879
0.749325 0.0682994 0.00640879
0 0.169574 0
0 0.178561 0
0 0.203082 0
0.0472419 0.237415 0
0.345312 0.292149 0
0.891814 0.289967 0.00521859
0.926467 0.300023 0.0233921
0.917342 0.297581 0.0270848
0.917342 0.297581 0.0270848
0 0.278691 0
0 0.298802 0
6.10361e-05 0.343572 0
0.0422522 0.413916 0.000274662
0.236942 0.460639 0.0304265
0.721111 0.543038 0.0306554
0.906661 0.549477 0.0337987
0.935546 0.548119 0.0343328
0.935546 0.548119 0.0343328
3.0518e-05 0.333104 0
0.000137331 0.36199 1.5259e-05
0.000274662 0.415885 0
0.0570077 0.476631 0.00595102
0.228016 0.534829 0.0495155
0.438956 0.611231 0.0614176
0.859174 0.660731 0.0482032
0.888426 0.661814 0.0483406
0.888426 0.661814 0.0483406
0.000106813 0.357504 0
0.000213626 0.395453 0
0.000366217 0.450507 0
0.0776074 0.491066 0.0129854
0.239063 0.55729 0.0558633
0.337026 0.613916 0.0740826
0.808072 0.684062 0.0532845
0.883207 0.689525 0.0536049
0.883207 0.689525 0.0536049
0.000106813 0.357504 0
0.000213626 0.395453 0
0.000366217 0.450507 0
0.0776074 0.491066 0.0129854
0.239063 0.55729 0.0558633
0.337026 0.613916 0.0740826
0.808072 0.684062 0.0532845
0.883207 0.689525 0.0536049
0.883207 0.689525 0.0536049
0 0 0.0010071
0.00288396 0 0.00141909
0.0146181 0 0.00158694
0.0736095 0.000457771 0.000976577
0.24094 0.000106813 0.00030518
0.431968 0.00015259 0.000259403
0.599908 0.000213626 0.000213626
0.673945 0.000183108 0.000183108
0.673945 0.000183108 0.000183108
0 0.00129702 0.00144961
0.00184634 0.00146487 0.00154116
0.0133822 0.002121 0.00164797
0.0733654 0.00289921 0.000717174
0.272084 0.00106813 0.000213626
0.489036 0.000167849 0.000167849
0.679576 0.000183108 0.000183108
0.756237 0.000183108 0.000183108
0.756237 0.000183108 0.000183108
0 0.010193 0.00231937
0 0.0107118 0.00236515
0.0118105 0.0124208 0.000991836
0.0805219 0.0146639 0.00242618
0.267781 0.0161593 0.00239567
0.513085 0.0115053 0.00154116
0.759335 0.00445563 0.000656138
0.826017 0.00488289 0.000701915
0.826017 0.00488289 0.000701915
0 0.0584726 0.00187686
0 0.0612039 0.00172427
0 0.0678264 0.000183108
0.0906081 0.0806592 0
0.340078 0.086305 0.00411994
0.590036 0.0948501 0.00759899
0.726345 0.0894026 0.00767529
0.758389 0.0696727 0.00650034
0.758389 0.0696727 0.00650034
0 0.172564 0.000289921
0 0.18146 0
0 0.206226 0
0.0479744 0.242115 1.5259e-05
0.347936 0.298116 0
0.893111 0.296757 0.00657664
0.930373 0.306416 0.0246281
0.921263 0.302876 0.0279545
0.921263 0.302876 0.0279545
0 0.281956 0
0 0.302327 0
9.15541e-05 0.347936 0
0.0432898 0.419516 0.000503548
0.241184 0.466239 0.0326696
0.728161 0.551049 0.0318914
0.903273 0.555337 0.0344091
0.931197 0.553582 0.0347295
0.931197 0.553582 0.0347295
1.5259e-05 0.335424 0
0.000137331 0.364782 0
0.000274662 0.419348 0
0.0580606 0.478859 0.00653086
0.230838 0.53933 0.0506447
0.442985 0.615961 0.0623636
0.859174 0.664424 0.0489204
0.889204 0.665507 0.0490578
0.889204 0.665507 0.0490578
1.5259e-05 0.35967 0.00172427
0.000213626 0.396597 0
0.000366217 0.451728 0
0.0760662 0.49218 0.0129549
0.238834 0.558267 0.0560616
0.337469 0.614939 0.0743267
0.808316 0.684977 0.0534981
0.882948 0.690425 0.0537118
0.882948 0.690425 0.0537118
1.5259e-05 0.35967 0.00172427
0.000213626 0.396597 0
0.000366217 0.451728 0
0.0760662 0.49218 0.0129549
0.238834 0.558267 0.0560616
0.337469 0.614939 0.0743267
0.808316 0.684977 0.0534981
0.882948 0.690425 0.0537118
0.882948 0.690425 0.0537118
0 0 0.00839246
0.00231937 0 0.00769055
0.0133364 3.0518e-05 0.00854505
0.0755779 0.000366217 0.00909438
0.251209 0 0.00886549
0.459068 0 0.00457771
0.63714 3.0518e-05 0.00352483
0.713848 4.57771e-05 0.00363165
0.713848 4.57771e-05 0.00363165
0 0.00282292 0.00341802
0 0.00234989 0.00839246
0.0126955 0.00196841 0.00881972
0.081529 0.00228885 0.00907912
0.276783 0 0.00836194
0.518074 1.5259e-05 0.00428779
0.718608 6.10361e-05 0.00323491
0.797925 6.10361e-05 0.00332647
0.797925 6.10361e-05 0.00332647
0 0.0119783 0.0103609
0 0.0124819 0.0103304
0.0105592 0.012604 0.00991836
0.0839551 0.0148775 0.00920119
0.293645 0.0125124 0.00474556
0.550454 0.00547799 0.00077821
0.817044 0.000213626 0.000213626
0.880079 0.000808728 0.000289921
0.880079 0.000808728 0.000289921
0 0.0628214 0.010132
0 0.0658427 0.010071
0 0.0736706 0.00891127
0.0849622 0.0826123 0.000839246
0.33019 0.0860456 0.0037232
0.583642 0.0923629 0.00750744
0.72134 0.086244 0.00750744
0.755764 0.0660868 0.0062562
0.755764 0.0660868 0.0062562
0 0.184146 0.00840772
0 0.193851 0.00840772
0 0.216739 0.007187
0.0422065 0.248035 0.00222782
0.34284 0.30396 1.5259e-05
0.887129 0.301518 0.00688182
0.933913 0.310628 0.0248264
0.924651 0.306142 0.0279545
0.924651 0.306142 0.0279545
0 0.299351 0.00982681
0 0.318715 0.00920119
0 0.359823 0.00547799
0.0328222 0.426276 0.000640879
0.237659 0.470787 0.0341344
0.720668 0.557488 0.0329442
0.89807 0.563348 0.035111
0.926986 0.560815 0.0353399
0.926986 0.560815 0.0353399
0 0.355337 0.0132448
0 0.382773 0.0126192
0 0.430396 0.00936904
0.0399329 0.483299 0.00700389
0.220966 0.535607 0.0489662
0.430228 0.610407 0.0625162
0.859174 0.664424 0.0489204
0.888945 0.664637 0.0488746
0.888945 0.664637 0.0488746
0 0.386328 0.0211643
0 0.422309 0.0210422
9.15541e-05 0.467994 0.0195773
0.0547494 0.495689 0.031632
0.220508 0.546166 0.0615244
0.318273 0.596201 0.0726482
0.807324 0.674372 0.0524453
0.884001 0.678279 0.0522316
0.884001 0.678279 0.0522316
0 0.386328 0.0211643
0 0.422309 0.0210422
9.15541e-05 0.467994 0.0195773
0.0547494 0.495689 0.031632
0.220508 0.546166 0.0615244
0.318273 0.596201 0.0726482
0.807324 0.674372 0.0524453
0.884001 0.678279 0.0522316
0.884001 0.678279 0.0522316
0 0 0.0551766
0 0 0.0465553
0.0111238 0 0.0476081
0.0671092 0 0.05449
0.253223 0 0.067277
0.475532 0 0.0706798
0.663767 0 0.049836
0.747189 0 0.0329442
0.747189 0 0.0329442
0 1.5259e-05 0.0603189
0 0.00230411 0.0610513
0.0100862 0.000854505 0.050782
0.0721141 0.00149538 0.0582132
0.278019 0 0.0729534
0.533654 0 0.0760052
0.743603 0 0.054078
0.829267 0 0.0362249
0.829267 0 0.0362249
0 0.0212711 0.0220798
0 0.0226291 0.0217441
0 0.0227817 0.049836
0.082536 0.0138094 0.0694896
0.321324 0.010071 0.0746929
0.588998 0.00344854 0.0717021
0.828016 0 0.0532845
0.901976 0.000381476 0.0347295
0.901976 0.000381476 0.0347295
0 0.0796521 0.0845655
0 0.0837568 0.0871748
0 0.0930343 0.0869154
0.0716411 0.0861067 0.0732586
0.289967 0.0928969 0.075288
0.554177 0.0894636 0.0690166
0.730434 0.0795758 0.0496986
0.823774 0.057908 0.0364233
0.823774 0.057908 0.0364233
0 0.208072 0.0730144
0 0.218387 0.075227
0 0.242817 0.0770733
0.0235599 0.271458 0.075349
0.306416 0.308858 0.0533913
0.674815 0.316823 0.117266
0.80058 0.327428 0.108217
0.832746 0.324819 0.100023
0.832746 0.324819 0.100023
0 0.332662 0.0634012
0 0.35378 0.0654307
0 0.398581 0.0669871
0.0128939 0.454353 0.0658427
0.226963 0.482368 0.127398
0.647959 0.55729 0.110307
0.89807 0.572534 0.102205
0.931472 0.569024 0.102281
0.931472 0.569024 0.102281
0 0.391653 0.0510872
0 0.421988 0.0534981
0 0.468864 0.0565957
0.0221408 0.509194 0.071458
0.21416 0.554559 0.136294
0.413245 0.614115 0.162188
0.849454 0.680446 0.13579
0.880079 0.679362 0.134295
0.880079 0.679362 0.134295
0 0.422812 0.0634012
0 0.458198 0.0679942
0.00184634 0.497353 0.0739757
0.0373541 0.522332 0.0999466
0.222736 0.579324 0.162081
0.321904 0.624613 0.184253
0.796017 0.708843 0.169375
0.87071 0.712703 0.167575
0.87071 0.712703 0.167575
0 0.422812 0.0634012
0 0.458198 0.0679942
0.00184634 0.497169 0.0739147
0.0373541 0.522332 0.0999466
0.222736 0.579324 0.162081
0.321904 0.624613 0.184253
0.796017 0.708843 0.169375
0.87071 0.712703 0.167575
0.87071 0.712703 0.167575
0 0.00112917 0.185657
0 0.00114443 0.189075
0.00328069 0 0.150179
0.0639353 0 0.165972
0.246387 0 0.205905
0.455222 0 0.237537
0.619669 0 0.236713
0.703151 0 0.200366
0.703151 0 0.200366
0 0.00125124 0.199817
0 0.00129702 0.20383
0.00256352 0 0.162188
0.0680552 0 0.179751
0.270191 0 0.226017
0.502541 0 0.258167
0.679576 0 0.255512
0.766003 0 0.216037
0.766003 0 0.216037
0 0.00384527 0.233066
0 0.00852979 0.231434
0 0.0229496 0.203403
0.0731365 0.00807202 0.224735
0.293645 0.00598154 0.254246
0.541283 0.000885023 0.278019
0.729747 0 0.271321
0.819791 0.000244144 0.226612
0.819791 0.000244144 0.226612
0 0.113466 0.0612039
0 0.117754 0.0628214
0 0.130388 0.0678264
0.00550851 0.116258 0.223667
0.283589 0.090135 0.25893
0.550851 0.0836805 0.266896
0.755291 0.070985 0.255131
0.842222 0.0479744 0.217807
0.842222 0.0479744 0.217807
0 0.255634 0.293767
0 0.268421 0.303563
0 0.299351 0.314351
0 0.332815 0.293904
0.285344 0.320607 0.284535
0.521599 0.346471 0.311162
0.657923 0.353628 0.309804
0.680659 0.349126 0.280995
0.680659 0.349126 0.280995
0 0.402045 0.265126
0 0.42594 0.272221
0 0.471138 0.27924
0 0.519371 0.272847
0.21651 0.516594 0.323949
0.606912 0.593118 0.339361
0.862928 0.609796 0.347631
0.915526 0.610407 0.302068
0.915526 0.610407 0.302068
0 0.4477 0.205783
0 0.475715 0.214862
0 0.511604 0.226017
0.0122225 0.543816 0.238117
0.216861 0.591272 0.307225
0.415229 0.651865 0.345602
0.824765 0.722026 0.306279
0.869139 0.722484 0.247532
0.869139 0.722484 0.247532
0 0.451545 0.117098
3.0518e-05 0.483482 0.127321
0.00459297 0.514015 0.14049
0.0204471 0.549096 0.163684
0.222141 0.607935 0.237888
0.325841 0.65684 0.26627
0.777203 0.740032 0.273991
0.865232 0.750042 0.26981
0.865232 0.750042 0.269932
0 0.451545 0.117098
3.0518e-05 0.483482 0.127321
0.00459297 0.514199 0.14049
0.0204471 0.549096 0.163684
0.222141 0.607935 0.237888
0.325841 0.65684 0.26627
0.777203 0.740032 0.273991
0.865232 0.750042 0.26981
0.865232 0.750042 0.26981
0 0.00257877 0.37409
0 0.00263981 0.380591
0 0.00209049 0.377813
0.0454719 0 0.320745
0.244755 0 0.403357
0.44683 0 0.457145
0.587564 0 0.475715
0.641474 0 0.475715
0.641474 0 0.475715
0 0.00277714 0.398245
0 0.00285344 0.404685
0 0.00199893 0.396429
0.0486458 0 0.351293
0.267781 0 0.446128
0.486992 0 0.491432
0.638224 0 0.503471
0.693156 0 0.504021
0.693156 0 0.504021
0 0.00306706 0.427756
0 0.0031281 0.433188
0 0.0182956 0.438087
0.0459297 0.00680552 0.43949
0.278691 0.00425727 0.484215
0.512718 9.15541e-05 0.517159
0.674372 0 0.529946
0.720668 0.000289921 0.518639
0.720668 0.000289921 0.518639
0 0.0851606 0.27747
0 0.0919509 0.273106
0 0.115038 0.236011
0 0.0882582 0.531701
0.270436 0.0519722 0.464485
0.501991 0.0491035 0.458717
0.674372 0.0462501 0.457496
0.730434 0.0498817 0.455573
0.730434 0.0498817 0.455573
0 0.298939 0.220508
0 0.312612 0.243763
0 0.343572 0.313191
0 0.380438 0.414069
0.182757 0.346471 0.422644
0.501991 0.334127 0.426276
0.655116 0.337179 0.434592
0.694743 0.325689 0.43389
0.694743 0.325689 0.43389
0 0.456275 0.469917
0 0.481636 0.471839
0 0.527214 0.469215
0 0.570184 0.450858
0.149172 0.563149 0.450675
0.578088 0.607935 0.508461
0.750759 0.637568 0.551629
0.783154 0.645579 0.561013
0.783154 0.645579 0.561013
0 0.517708 0.466407
0 0.543618 0.46186
0 0.570779 0.449454
0.00360113 0.604654 0.437736
0.176562 0.643641 0.472877
0.368353 0.684749 0.508827
0.797223 0.749096 0.570581
0.864454 0.757671 0.577478
0.864454 0.757671 0.577478
0 0.535409 0.457328
0 0.558465 0.449454
0 0.579538 0.438956
0.00802625 0.616785 0.435996
0.189837 0.659876 0.476814
0.315663 0.701564 0.505135
0.756954 0.76672 0.572732
0.856931 0.785306 0.578714
0.856931 0.785306 0.578714
0 0.535409 0.457328
0 0.558465 0.449454
0 0.579538 0.438956
0.00802625 0.616785 0.435996
0.189837 0.659876 0.476814
0.315663 0.701564 0.505135
0.756954 0.76672 0.572732
0.856931 0.785306 0.578714
0.856931 0.785306 0.578714
0 0.00331121 0.445426
0 0.00335698 0.448051
0 0.00344854 0.450858
0.0129244 0 0.410773
0.20177 0 0.499214
0.447181 0 0.548699
0.589624 0 0.557687
0.642985 0 0.56022
0.642985 0 0.56022
0 0.00352483 0.45243
0 0.00358587 0.453468
0 0.00366217 0.45539
0.0166629 0 0.437736
0.220966 0 0.528191
0.484215 0 0.563149
0.640818 0 0.565698
0.694301 0 0.566476
0.694301 0 0.566476
0 0.00376898 0.457664
0 0.00381476 0.4589
0 0.0144808 0.462913
0.00767529 0.0106813 0.503655
0.227314 0.00486763 0.540688
0.500511 0.000686656 0.55729
0.664851 0 0.563943
0.708843 0.00105287 0.553979
0.708843 0.00105287 0.553979
0 0.0685893 0.474281
0 0.0779736 0.472007
0 0.108431 0.423636
0 0.102281 0.547723
0.217212 0.0473335 0.49514
0.484413 0.0486 0.475532
0.654459 0.0487373 0.472007
0.7093 0.0527047 0.470603
0.7093 0.0527047 0.470603
1.5259e-05 0.226261 0.168765
0 0.237659 0.166171
0 0.263355 0.159762
0 0.295003 0.157488
0.104463 0.190921 0.474281
0.519936 0.174258 0.464668
0.730434 0.15758 0.463615
0.796262 0.141039 0.46746
0.796262 0.141039 0.46746
0 0.478294 0.470436
0 0.504204 0.4748
0 0.546746 0.477745
0 0.586114 0.46746
0.114519 0.571359 0.460121
0.486992 0.613703 0.510491
0.720211 0.626093 0.55613
0.754803 0.632166 0.564721
0.754803 0.632166 0.564721
0 0.544594 0.477012
0 0.567071 0.472877
0 0.59086 0.463264
0.00030518 0.626749 0.457496
0.144503 0.663981 0.488472
0.283314 0.707485 0.518822
0.780774 0.751705 0.585702
0.837736 0.761242 0.593332
0.837736 0.761242 0.593332
0 0.56257 0.473228
0 0.582208 0.466941
0 0.603006 0.459251
0.00296025 0.642771 0.458366
0.152728 0.684977 0.494774
0.27361 0.728618 0.523491
0.740993 0.771725 0.588586
0.84123 0.789349 0.601358
0.84123 0.789349 0.601358
0 0.56257 0.473228
0 0.582208 0.466941
0 0.603006 0.459251
0.00296025 0.642771 0.458366
0.152728 0.684977 0.494774
0.27361 0.728618 0.523491
0.740993 0.771725 0.588586
0.84123 0.789349 0.601358
0.84123 0.789349 0.601358
0 0.00357061 0.453117
0 0.00361639 0.454353
0 0.00370794 0.456092
0.0138094 0 0.439307
0.0711681 0 0.474449
0.44036 0 0.562966
0.607736 0 0.566674
0.661814 0 0.567254
0.661814 0 0.567254
0 0.00378424 0.457847
0 0.00384527 0.459251
0 0.00392157 0.461341
0.016846 0 0.458198
0.0798505 0 0.487922
0.467292 0 0.568429
0.649042 0 0.571756
0.704524 0 0.572534
0.704524 0 0.572534
0 0.00399786 0.462913
0 0.0040589 0.464485
0 0.0277256 0.468864
0.00218204 0.0186007 0.532097
0.0879835 0.0111543 0.541665
0.46099 0.00656138 0.53991
0.641245 0.00474556 0.540108
0.68748 0.00743114 0.529168
0.68748 0.00743114 0.529168
0 0.0797894 0.491249
0 0.0916152 0.484596
0 0.119921 0.44036
0 0.119341 0.542641
0.0783246 0.0563211 0.514382
0.455741 0.0542763 0.478111
0.653376 0.0547036 0.474983
0.711574 0.0586862 0.474113
0.711574 0.0586862 0.474113
0 0.185351 0.270314
0 0.199924 0.256397
0 0.227909 0.22884
0 0.262089 0.192767
0.00741588 0.181048 0.492363
0.482185 0.136629 0.47306
0.733623 0.138018 0.473411
0.789593 0.143603 0.471138
0.789593 0.143603 0.471138
0 0.444724 0.396765
0 0.470253 0.433188
0 0.514931 0.468681
0 0.566278 0.475898
0.0855726 0.531701 0.438788
0.409293 0.535409 0.488853
0.684291 0.548119 0.521782
0.727932 0.541085 0.520485
0.727932 0.541085 0.520485
0 0.551232 0.477195
0 0.572946 0.473762
0 0.595376 0.465888
0 0.630426 0.461173
0.136294 0.665507 0.491249
0.255756 0.707927 0.519371
0.750286 0.752895 0.585504
0.82826 0.758862 0.594965
0.82826 0.758862 0.594965
0 0.569207 0.474113
0 0.5888 0.467811
0 0.608148 0.462043
0.00222782 0.647318 0.462211
0.144778 0.68838 0.4981
0.263355 0.732708 0.527214
0.683833 0.770062 0.586328
0.836988 0.789349 0.605051
0.836988 0.789349 0.605051
0 0.569207 0.474113
0 0.5888 0.467811
0 0.608148 0.462043
0.00222782 0.647318 0.462211
0.144778 0.68838 0.4981
0.263355 0.732708 0.527214
0.683833 0.770062 0.586328
0.836988 0.789349 0.605051
0.836988 0.789349 0.605051
0 0.00357061 0.453117
0 0.00361639 0.454353
0 0.00370794 0.456092
0.0138094 0 0.439307
0.0711681 0 0.474449
0.44036 0 0.562966
0.607736 0 0.566674
0.661814 0 0.567254
0.661814 0 0.567254
0 0.00378424 0.457847
0 0.00384527 0.459251
0 0.00392157 0.461341
0.016846 0 0.458198
0.0798505 0 0.487922
0.467292 0 0.568429
0.649042 0 0.571756
0.704524 0 0.572534
0.704524 0 0.572534
0 0.00399786 0.462913
0 0.0040589 0.464485
0 0.0277256 0.468864
0.00218204 0.0186007 0.532097
0.0879835 0.0111543 0.541665
0.46099 0.00656138 0.53991
0.641245 0.00474556 0.540108
0.68748 0.00743114 0.529168
0.68748 0.00741588 0.529366
0 0.0797894 0.491249
0 0.0916152 0.484596
0 0.119921 0.44036
0 0.119341 0.542641
0.0783246 0.0563211 0.514382
0.455741 0.0542763 0.478111
0.653376 0.0547036 0.474983
0.711574 0.0586862 0.474113
0.711574 0.0586862 0.474113
0 0.185351 0.270314
0 0.199924 0.256397
0 0.227909 0.22884
0 0.262089 0.192767
0.00741588 0.181048 0.492363
0.482185 0.136629 0.47306
0.733623 0.138018 0.473411
0.789593 0.143603 0.471138
0.789593 0.143603 0.471138
0 0.444724 0.396765
0 0.470253 0.433188
0 0.514931 0.468681
0 0.566278 0.475898
0.0855726 0.531701 0.438788
0.409293 0.535409 0.488853
0.684291 0.548119 0.521782
0.727932 0.541085 0.520485
0.727932 0.541085 0.520485
0 0.551232 0.477195
0 0.572946 0.473762
0 0.595376 0.465888
0 0.630426 0.461173
0.136294 0.665507 0.491249
0.255756 0.707927 0.519371
0.750286 0.752895 0.585504
0.82826 0.758862 0.594965
0.82826 0.758862 0.594965
0 0.569207 0.474113
0 0.5888 0.467811
0 0.608148 0.462043
0.00222782 0.647318 0.462211
0.144778 0.68838 0.4981
0.263355 0.732708 0.527214
0.683833 0.770062 0.586328
0.836988 0.789349 0.605051
0.836988 0.789349 0.605051
0 0.569207 0.474113
0 0.5888 0.467811
0 0.608148 0.462043
0.00222782 0.647318 0.462211
0.144778 0.68838 0.4981
0.263355 0.732708 0.527214
0.683833 0.770062 0.586328
0.836988 0.789349 0.605051
0.836988 0.789349 0.605051
